X: 1
T: Fiddle Hill Jig
C: Ralph Page
M: 6/8
K: G
"D7"BA \
| "G"G2g f2e | d^cd edB | G2B c2^c | "D"d3- dAB \
| "D7"c2d c2d | cAF DFA | ded cdc | "G"B3- B2 ||
y2A \
| "G"G2g f2e | d^cd edB | G2B c2^c | "D"d3- dAB \
| "D7"c2d c2d | cAF DFA | ded cBA | "G"G3 z |] [K:D]
FG \
| "D"[AA]BA "A7"[GG]AG | "D"FAd fed | "A7"c2e B2c | "E7"BA^G "A7"AFG \
| "D"[AA]BA "A7"[GG]AG | "D"FAd fed |"A7"cBA ABc | "D"d3 z ||
FG \
| "D"[AA]BA "A7"[GG]AG | "D"FAd fed | "A7"c2e B2c | "E7"BA^G "A7"AFG \
| "D"[AA]BA "A7"[GG]AG | "D"FAd fed |"A7"cBA gfe | "D"d4 |]

%%sep 1 1 500

